src/assets/images/twitter.svg

<?xml version="1.0" encoding="UTF-8" standalone="no" ?>
<!DOCTYPE svg PUBLIC "-//W3C//DTD SVG 1.1//EN" "http://www.w3.org/Graphics/SVG/1.1/DTD/svg11.dtd">
<svg xmlns="http://www.w3.org/2000/svg" xmlns:xlink="http://www.w3.org/1999/xlink" version="1.1" width="1080" height="1080" viewBox="0 0 1080 1080" xml:space="preserve">
<desc>Created with Fabric.js 5.2.4</desc>
<defs>
</defs>
<rect x="0" y="0" width="100%" height="100%" fill="transparent"></rect>
<g transform="matrix(1 0 0 1 540 540)" id="f07a1543-36de-46f0-a141-b5c741c7eae9"  >
<rect style="stroke: none; stroke-width: 1; stroke-dasharray: none; stroke-linecap: butt; stroke-dashoffset: 0; stroke-linejoin: miter; stroke-miterlimit: 4; fill: rgb(255,255,255); fill-rule: nonzero; opacity: 1; visibility: hidden;" vector-effect="non-scaling-stroke"  x="-540" y="-540" rx="0" ry="0" width="1080" height="1080" />
</g>
<g transform="matrix(1 0 0 1 540 540)" id="b8930611-c742-47af-8e74-fb408a992613"  >
</g>
<g transform="matrix(1 0 0 1 540 540)"  >
<rect style="stroke: none; stroke-width: 1; stroke-dasharray: none; stroke-linecap: butt; stroke-dashoffset: 0; stroke-linejoin: miter; stroke-miterlimit: 4; fill: rgb(255,255,255); fill-rule: nonzero; opacity: 1; visibility: hidden;" vector-effect="non-scaling-stroke"  x="-540" y="-540" rx="0" ry="0" width="1080" height="1080" />
</g>
<g transform="matrix(1 0 0 1 50 50)"  >
<rect style="stroke: none; stroke-width: 1; stroke-dasharray: none; stroke-linecap: butt; stroke-dashoffset: 0; stroke-linejoin: miter; stroke-miterlimit: 4; fill: rgb(255,255,255); fill-opacity: 0; fill-rule: nonzero; opacity: 1;" vector-effect="non-scaling-stroke"  x="-50" y="-50" rx="0" ry="0" width="100" height="100" />
</g>
<g transform="matrix(1 0 0 1 540 540)"  >
<rect style="stroke: none; stroke-width: 1; stroke-dasharray: none; stroke-linecap: butt; stroke-dashoffset: 0; stroke-linejoin: miter; stroke-miterlimit: 4; fill: rgb(255,255,255); fill-rule: nonzero; opacity: 1; visibility: hidden;" vector-effect="non-scaling-stroke"  x="-540" y="-540" rx="0" ry="0" width="1080" height="1080" />
</g>
<g transform="matrix(42.98 0 0 42.98 540 540)"  >
<path style="stroke: rgb(0,0,0); stroke-width: 0; stroke-dasharray: none; stroke-linecap: butt; stroke-dashoffset: 0; stroke-linejoin: miter; stroke-miterlimit: 4; fill: rgb(255,255,255); fill-rule: nonzero; opacity: 1;" vector-effect="non-scaling-stroke"  transform=" translate(-12, -12)" d="M 21.543 7.104 C 21.557 7.315 21.557 7.527 21.557 7.74 C 21.557 14.247 16.602999999999998 21.75 7.546999999999999 21.75 L 7.546999999999999 21.746 C 4.872 21.75 2.252 20.984 0 19.539 C 0.389 19.586000000000002 0.78 19.609 1.172 19.610000000000003 C 3.3899999999999997 19.612000000000002 5.544 18.868000000000002 7.287 17.498000000000005 C 5.18 17.458000000000006 3.332 16.084000000000003 2.6870000000000003 14.078000000000005 C 3.4250000000000003 14.220000000000004 4.1850000000000005 14.191000000000004 4.91 13.994000000000005 C 2.612 13.530000000000005 0.96 11.511000000000005 0.96 9.167000000000005 C 0.96 9.146000000000004 0.96 9.125000000000005 0.96 9.105000000000006 C 1.645 9.487000000000005 2.411 9.698000000000006 3.195 9.721000000000005 C 1.031 8.276 0.363 5.398 1.67 3.148 C 4.17 6.224 7.859 8.094 11.818 8.293 C 11.421 6.582999999999999 11.964 4.7909999999999995 13.241999999999999 3.587999999999999 C 15.225 1.7229999999999992 18.344 1.8189999999999993 20.209 3.801999999999999 C 21.312 3.584999999999999 22.369 3.1799999999999993 23.336 2.6069999999999993 C 22.968 3.746999999999999 22.198999999999998 4.715 21.171 5.3309999999999995 C 22.148 5.214 23.101 4.953 24 4.555 C 23.339 5.544 22.507 6.407 21.543 7.104 z" stroke-linecap="round" />
</g>
</svg>

<?xml version="1.0" encoding="UTF-8"?>
<!-- Generator: Adobe Illustrator 26.0.1, SVG Export Plug-In . SVG Version: 6.00 Build 0)  -->
<svg xmlns="http://www.w3.org/2000/svg" xmlns:xlink="http://www.w3.org/1999/xlink" version="1.1" id="Capa_1" x="0px" y="0px" viewBox="0 0 24 24" style="enable-background:new 0 0 24 24;" xml:space="preserve" width="512" height="512">
<path id="Logo_00000038394049246713568260000012923108920998390947_" d="M21.543,7.104c0.014,0.211,0.014,0.423,0.014,0.636  c0,6.507-4.954,14.01-14.01,14.01v-0.004C4.872,21.75,2.252,20.984,0,19.539c0.389,0.047,0.78,0.07,1.172,0.071  c2.218,0.002,4.372-0.742,6.115-2.112c-2.107-0.04-3.955-1.414-4.6-3.42c0.738,0.142,1.498,0.113,2.223-0.084  c-2.298-0.464-3.95-2.483-3.95-4.827c0-0.021,0-0.042,0-0.062c0.685,0.382,1.451,0.593,2.235,0.616  C1.031,8.276,0.363,5.398,1.67,3.148c2.5,3.076,6.189,4.946,10.148,5.145c-0.397-1.71,0.146-3.502,1.424-4.705  c1.983-1.865,5.102-1.769,6.967,0.214c1.103-0.217,2.16-0.622,3.127-1.195c-0.368,1.14-1.137,2.108-2.165,2.724  C22.148,5.214,23.101,4.953,24,4.555C23.339,5.544,22.507,6.407,21.543,7.104z"/>















</svg>
